X:727
T:Reel 727
M:4/4
K:Emin
L:1/8
B>d (3GAG B>G (3GGG |d>G (3GGG e>d (3ddd | (3GFG  (3AGA g>e (3GAG |AcdB dBA2:|B>A (3ddd e>B (3gfg |afdf egfd|c>A (3AGA G>A (3Bcd | (3efe dB AcB2|A>F (3FGF d>A (3Add |d>d (3dcd e>d (3ddd | (3cdA  (3ddd e>f (3dfd | (3cBA B>F  (3GFE |
